X:1
T:Title
%%score { ( 1 3 ) | ( 2 4 ) }
L:1/8
M:4/4
K:F
V:1 treble nm="Grand Piano"
V:3 treble 
V:2 bass 
V:4 bass 
V:1
 z4 z2[Q:1/4=106] [FA]>[GB] | [Ac]2 [Bd]2 [Ac]2 FG | ABAG F2 A>A | [EG]2 [FA]2 [GB]2 [FA][EG] | %4
 A2 d2 c2 A>[GB] | [Ac]2 [Bd]2 [Ac]2 FG | ABAG F2 AA | [DFG]2 [Fd]2 [Fc]2 F[FG] | [FA]2 G2 F4 | %9
 c6 z2 | c6 z2 | f6 z2 | c6 z2 | c6 z2 | c6 z2 | dfed c2 Ac |[M:7/8] [Ec]3 E2 F2 |] %17
V:2
 z4 z2 [F,C]>[F,C] | [F,F]2 [F,F]2 [F,F]2 [F,A,][F,B,F] | %2
 [F,CF][F,DF][F,CF][F,B,F] [F,A,]2 [F,CF]>[F,CF] | [C,C]2 [C,C]2 [C,C]2 [C,C][C,C] | %4
 [F,CF]2 [F,B,F]2 [F,A,F]2 [F,CF]>[F,C] | [F,F]2 [F,F]2 [F,F]2 [F,A,][F,B,F] | %6
 [F,CF][F,DF][F,CF][F,B,F] [F,A,]2 [F,CF][F,CF] | B,,2 [B,,B,]2 [C,A,]2 [C,A,][C,B,] | %8
 [C,C]2 [C,B,C]2 [F,A,C]4 | [F,A,F]2 [F,B,]2 [F,C]2 F,2 | [F,A,F][F,A,][F,A,][F,B,] [F,C]2 [F,C]2 | %11
 [B,DB]2 [B,D]2[K:bass] [B,D]2 B,,2 | [F,C][F,C][F,C][F,B,] [F,A,]2 z2 | %13
 [C,G,]2 [C,G,]2 [C,B,]2 z2 | [F,A,F][F,A,][F,A,][F,B,] [F,C]2 z2 | %15
 [B,F][B,DF][B,CF][B,F] [F,A,F]2[K:bass] [F,F]-[F,A,F] |[M:7/8] [C,G,]3 [C,B,C]2 [F,A,C]2 |] %17
V:3
 x8 | x8 | x8 | x8 | x8 | x8 | x8 | x8 | x8 | z2 G2 A2 dc | z FFG A2 [Af]2 | z2 B2 B2 ed | %12
 AAAG F2 z2 | E2 E2 E2 Gd | z FFG A2 z2 | x8 |[M:7/8] x7 |] %17
V:4
 x8 | x8 | x8 | x8 | x8 | x8 | x8 | x8 | x8 | x8 | x8 | x4[K:bass] x4 | x8 | x8 | x8 | %15
 z4 z2[K:bass] .C2 |[M:7/8] x7 |] %17

